svg/system/share_3_fill.svg

<?xml version="1.0" encoding="UTF-8"?>
<svg width="24px" height="24px" viewBox="0 0 24 24" version="1.1" xmlns="http://www.w3.org/2000/svg" xmlns:xlink="http://www.w3.org/1999/xlink">
    <title>share_3_fill</title>
    <g id="页面-1" stroke="none" stroke-width="1" fill="none" fill-rule="evenodd">
        <g id="System" transform="translate(-960.000000, -144.000000)" fill-rule="nonzero">
            <g id="share_3_fill" transform="translate(960.000000, 144.000000)">
                 <path d="M24,0 L24,24 L0,24 L0,0 L24,0 Z M12.5934901,23.257841 L12.5819402,23.2595131 L12.5108777,23.2950439 L12.4918791,23.2987469 L12.4918791,23.2987469 L12.4767152,23.2950439 L12.4056548,23.2595131 C12.3958229,23.2563662 12.3870493,23.2590235 12.3821421,23.2649074 L12.3780323,23.275831 L12.360941,23.7031097 L12.3658947,23.7234994 L12.3769048,23.7357139 L12.4804777,23.8096931 L12.4953491,23.8136134 L12.4953491,23.8136134 L12.5071152,23.8096931 L12.6106902,23.7357139 L12.6232938,23.7196733 L12.6232938,23.7196733 L12.6266527,23.7031097 L12.609561,23.275831 C12.6075724,23.2657013 12.6010112,23.2592993 12.5934901,23.257841 L12.5934901,23.257841 Z M12.8583906,23.1452862 L12.8445485,23.1473072 L12.6598443,23.2396597 L12.6498822,23.2499052 L12.6498822,23.2499052 L12.6471943,23.2611114 L12.6650943,23.6906389 L12.6699349,23.7034178 L12.6699349,23.7034178 L12.678386,23.7104931 L12.8793402,23.8032389 C12.8914285,23.8068999 12.9022333,23.8029875 12.9078286,23.7952264 L12.9118235,23.7811639 L12.8776777,23.1665331 C12.8752882,23.1545897 12.8674102,23.1470016 12.8583906,23.1452862 L12.8583906,23.1452862 Z M12.1430473,23.1473072 C12.1332178,23.1423925 12.1221763,23.1452606 12.1156365,23.1525954 L12.1099173,23.1665331 L12.0757714,23.7811639 C12.0751323,23.7926639 12.0828099,23.8018602 12.0926481,23.8045676 L12.108256,23.8032389 L12.3092106,23.7104931 L12.3186497,23.7024347 L12.3186497,23.7024347 L12.3225043,23.6906389 L12.340401,23.2611114 L12.337245,23.2485176 L12.337245,23.2485176 L12.3277531,23.2396597 L12.1430473,23.1473072 Z" id="MingCute" fill-rule="nonzero"></path>
                <path d="M11.1707,3 C11.0602,3.31278 11,3.64936 11,4 C11,4.82424 11.3324,5.57084 11.8705,6.11307 C10.3843,7.64956 8.96368,9.62212 8.15395,12.0513 C7.63001,13.6231 8.47949,15.3221 10.0513,15.8461 C11.5669643,16.3512893 13.2009051,15.5794268 13.7855203,14.1143136 L13.8461,13.9487 C14.4575,12.1143 15.771,10.539 17.2681,9.27246 C18.0910444,8.57627667 18.914637,8.01988654 19.5962337,7.60765005 L19.9870111,7.37764148 L19.9870111,7.37764148 L20.3368626,7.18243908 L20.3368626,7.18243908 L20.6389412,7.02225215 L20.6389412,7.02225215 L21,6.83872 L21,19 C21,20.0543909 20.18415,20.9181678 19.1492661,20.9945144 L19,21 L5,21 C3.94563773,21 3.08183483,20.18415 3.00548573,19.1492661 L3,19 L3,5 C3,3.94563773 3.81587733,3.08183483 4.85073759,3.00548573 L5,3 L11.1707,3 Z M19.5128,3 C20.1351,3 20.4967,3.46833 20.5878,3.85625 C20.6791,4.24461 20.5633,4.82708 20.0029,5.10302 L19.5889579,5.31428293 C19.53627,5.3420676 19.4814802,5.37128802 19.424718,5.40194298 L19.0615142,5.60307716 L19.0615142,5.60307716 L18.657194,5.83858068 L18.657194,5.83858068 L18.2179767,6.10839419 C17.5360875,6.53881729 16.7574105,7.08483632 15.9764,7.74555 C14.3223,9.14484 12.7183,11.0073 11.9487,13.3162 C11.774,13.8402 11.2077,14.1233 10.6838,13.9487 C10.1598,13.774 9.87667,13.2077 10.0513,12.6838 C10.9792,9.90024 12.8736,7.75071 14.6847,6.21863 C15.11622,5.853542 15.546524,5.5205948 15.962812,5.21968088 L16.2722,5 L14,5 C13.4477,5 13,4.55228 13,4 C13,3.48716857 13.386027,3.06449347 13.8833761,3.0067278 L14,3 L19.5128,3 Z" id="形状" fill="#09244B"></path>
            </g>
        </g>
    </g>
</svg>

<svg xmlns="http://www.w3.org/2000/svg" width="24" height="24"><g fill="none" fill-rule="nonzero"><path d="M24 0v24H0V0h24ZM12.593 23.258l-.011.002-.071.035-.02.004-.014-.004-.071-.035c-.01-.004-.019-.001-.024.005l-.004.01-.017.428.005.02.01.013.104.074.015.004.012-.004.104-.074.012-.016.004-.017-.017-.427c-.002-.01-.009-.017-.017-.018Zm.265-.113-.013.002-.185.093-.01.01-.003.011.018.43.005.012.008.007.201.093c.012.004.023 0 .029-.008l.004-.014-.034-.614c-.003-.012-.01-.02-.02-.022Zm-.715.002a.023.023 0 0 0-.027.006l-.006.014-.034.614c0 .012.007.02.017.024l.015-.002.201-.093.01-.008.004-.011.017-.43-.003-.012-.01-.01-.184-.092Z"/><path fill="#09244B" d="M11.17 3c-.11.313-.17.65-.17 1 0 .824.332 1.57.87 2.113-1.486 1.537-2.906 3.51-3.716 5.938a3 3 0 0 0 5.632 2.063l.06-.165c.611-1.835 1.925-3.41 3.422-4.677a18.286 18.286 0 0 1 2.328-1.664l.391-.23.35-.196.302-.16L21 6.84V19a2 2 0 0 1-1.85 1.995L19 21H5a2 2 0 0 1-1.995-1.85L3 19V5a2 2 0 0 1 1.85-1.995L5 3h6.17Zm8.343 0c.622 0 .984.468 1.075.856.091.389-.025.971-.585 1.247l-.414.211-.164.088-.363.201-.405.236-.439.27c-.682.43-1.46.976-2.242 1.637-1.654 1.399-3.258 3.261-4.027 5.57a1 1 0 0 1-1.898-.632c.928-2.784 2.823-4.933 4.634-6.465.431-.365.862-.698 1.278-1l.31-.219H14a1 1 0 0 1-.117-1.993L14 3h5.513Z"/></g></svg>
